X:1
T:Title
%%score { 1 | 2 }
L:1/8
Q:1/4=100
M:4/4
K:Eb
V:1 treble nm="Grand Piano"
V:2 bass 
V:1
 G3 G G[GB][FA][Ac] | [GB]4 [EG]4 | [DF]3 [DF] [DF][DF] [GB]>[FA] | G6 z2 | G3 G G[GB][FA][Ac] | %5
w: Geo.~C.~Hugg * * * * *|||||
 [GB]4 [GB]4 | =A3 A AA d>c | [DB]6 z2 | [DA]3 [DA] [DF][B,D] [Dc]>[DB] | [EB]4 [EG]4 | %10
w: |||||
 [FA]3 [FA] [DF][B,D] [Dc]>[DB] | B6 z2 | B3 B AGFE | c4 [Ad]4 | [Ge]3 [GB] [Ac][GB][FA][EG] | %15
w: |||||
 [DF]6 z2 | [EG]3 [EG] [EA][EA][EB][EB] | [Ec]4 [Ee]4 | [Ee]BGE [B,DF]2 [DB]2 | E6 z2 |] %20
w: |||||
V:2
 [E,B,E]3 [E,B,E] [E,B,E][E,E][E,E][E,E] | [E,E]4 [E,B,]4 | %2
 [B,,B,]3 [B,,B,] [B,,B,][B,,B,] [B,,B,]>[B,,B,] | [E,B,E]6 z2 | %4
 [E,B,E]3 [E,B,E] [E,B,E][E,E][E,E][E,E] | [E,E]4 [E,E]4 | %6
 [F,CE]3 [F,CE] [F,CE][F,CE] [F,B,F]>[F,B,E] | [B,,B,]6 z2 | %8
 [F,B,]3 [F,B,] [B,,B,][B,,F,] [B,,A,]>[B,,A,] | [E,G,]4 [E,B,]4 | %10
 [D,B,]3 [D,B,] [B,,B,][B,,F,] [B,,A,]>[B,,A,] | [E,G,E]6 z2 | B,3 B, A,G,F,E, | [A,EA]4 [F,B,]4 | %14
 [E,B,]3 [E,E] [E,E][E,E][E,E][E,B,] | [B,,B,]6 z2 | [E,B,]3 [_D,B,] [C,A,][C,A,][B,,G,][B,,G,] | %17
 [A,,A,]4 [C,A,]4 | [B,,G,][E,G,E][G,B,E]B, B,,2 [B,,A,]2 | [E,G,]6 z2 |] %20

